src/assets/svg/icons/social/youtube.svg

<svg width="24" height="24" viewBox="0 0 24 24" fill="none" xmlns="http://www.w3.org/2000/svg">
<g id="icons/social/youtube">
<path id="icon" fill-rule="evenodd" clip-rule="evenodd" d="M22.0247 18.1282C22.7081 16.9571 23 15.0689 23 11.9972C23 8.93778 22.7108 7.06048 22.0202 5.85803C21.3281 4.60936 20.5073 4.21303 18.8783 4.1179C17.7662 4.04252 15.0023 4 12.0027 4C8.99661 4 6.23145 4.04251 5.111 4.11849C3.49112 4.21326 2.67011 4.61047 1.97193 5.8626C1.29138 7.0609 1 8.94737 1 12.0084C1 15.052 1.29279 16.948 1.97791 18.1424C2.66701 19.3784 3.47493 19.7708 5.1086 19.8855C6.28276 19.9543 9.20442 20 12.0027 20C14.7946 20 17.7149 19.9542 18.8783 19.8863C20.527 19.7708 21.3348 19.3778 22.0247 18.1282ZM18.7524 6.11391C19.7714 6.17346 19.9603 6.26505 20.2833 6.84964C20.7535 7.664 21 9.25771 21 12.0084C21 14.7383 20.7522 16.3408 20.2855 17.141C19.9614 17.7274 19.7738 17.8187 18.7501 17.8904C17.6489 17.9547 14.757 18 12.0027 18C9.24213 18 6.34874 17.9547 5.23703 17.8897C4.22601 17.8186 4.03565 17.7262 3.71873 17.1578C3.24886 16.3385 3 14.727 3 11.9972C3 9.26899 3.24754 7.66639 3.7149 6.84342C4.03675 6.26627 4.22844 6.17353 5.23709 6.11449C6.30508 6.04211 9.04424 6 12.0027 6C14.9547 6 17.6926 6.04212 18.7524 6.11391ZM10 9L15 12L10 15V9Z" fill="#101010"/>
</g>
</svg>

<svg xmlns="http://www.w3.org/2000/svg" fill="none" viewBox="0 0 24 24">
  <path fill="currentColor" fill-rule="evenodd" d="M22.025 18.128c.683-1.17.975-3.06.975-6.13 0-3.06-.29-4.938-.98-6.14-.692-1.249-1.513-1.645-3.142-1.74C17.766 4.043 15.002 4 12.003 4c-3.006 0-5.772.043-6.892.118-1.62.095-2.44.492-3.14 1.745C1.292 7.06 1 8.947 1 12.008c0 3.044.293 4.94.978 6.134.689 1.236 1.497 1.629 3.13 1.744 1.175.068 4.096.114 6.895.114 2.792 0 5.712-.046 6.875-.114 1.649-.115 2.457-.508 3.147-1.758ZM18.752 6.114c1.02.06 1.208.151 1.531.736.47.814.717 2.408.717 5.158 0 2.73-.248 4.333-.715 5.133-.324.586-.511.678-1.535.75-1.101.064-3.993.109-6.747.109-2.76 0-5.654-.045-6.766-.11-1.011-.071-1.201-.164-1.518-.732-.47-.82-.719-2.431-.719-5.16s.248-4.332.715-5.155c.322-.577.513-.67 1.522-.729C6.305 6.042 9.044 6 12.003 6c2.952 0 5.69.042 6.75.114ZM10 9l5 3-5 3V9Z" clip-rule="evenodd"/>
</svg>
